X:1
T:Meet in the Morning
T:William James Kirkpatrick
T:Meet in the Morning
T:Public Domain
T:Public Domain
T:Public Domain
C:William James Kirkpatrick
Z:Public Domain
%%score ( 1 2 ) ( 3 4 )
L:1/8
M:4/4
K:G
V:1 treble 
V:2 treble 
V:3 bass 
V:4 bass 
V:1
 D>[DG] | [GB]2 [GB]2 [GB][DA][DG][DA] | [GB]2 [DG]2 [EG]2 [CE]2 | [B,D]2 [DG]2 [CG][CA][DB][Ec] | %4
w: 1.~We are|ing on- ward to the heav’n-|ly land, To meet|each o- ther in the morn-|
w: 2.~We are|’ling on- ward from a world|of care, To meet|each o- ther in the morn-|
w: 3.~We are|’ling on- ward, and the way|grows bright, We’ll meet|each o- ther in the morn-|
w: 4.~Where the|are bloom- ing on the o-|ther shore, We’ll meet|each o- ther in the morn-|
w: 5.~In the|less rap- ture of a Sav-|ior’s love We’ll meet|each o- ther in the morn-|
 [Fd]4 [FA]2 [Fe]>[Fe] | [Gd]2 [GB]2 [GB][DA][DG][DA] | [GB]2 [DG]2 [EG]2 [CE]2 | %7
w: ing; We are press-|ing for- ward to the gold-|en strand, Where joy|
w: ing; Oh, the time|is com- ing, we shall soon|be there, And joy|
w: ing; Where our friends|are wait- ing, at the gate|of life, And joy|
w: ing! Where the heart’s|deep long- ing will be felt|no more, And joy|
w: ing; Then we’ll sing|His glo- ry in the realms|a- bove, And joy|
 [B,D]2 [DG]2 [DG][GB][Gd][GB] | [FA]4 [DG]2 ||"^Refrain" [Gd]>[Gd] | (G2 F2) [Gd]2 [Gd]>[Gd] | %11
w: will crown us in the morn-|ing. *|||
w: will crown us in the morn-|ing. *|||
w: will crown us in the morn-|ing. In|the morn-|ing, * in the morn-|
w: will crown us in the morn-|ing. *|||
w: will crown us in the morn-|ing. *|||
 [Ge]4 [Gd]2 G[GA] | [GB][GB][GB][GB] [GB][Gd][Gd][GB] | [FA]4 [Fd]2 [DG][DA] | %14
w: |||
w: |||
w: We will ga- ther|the faith- ful in the morn- ing; Where|the night of sor-|
w: |||
w: |||
 [GB]2 [Gd]2 [Gd][GB][DG][DA] | [GB]2 [DG]2 [EG]2 [CE]2 | [B,D]2 [DG]2 [DG][GB][Gd][GB] | %17
w: |||
w: |||
w: row shall be rolled a- way,|And joy will crown|us in the morn- ing. *|
w: |||
w: |||
 [FA]4 [DG]2 |] %18
w: |
w: |
w: |
w: |
w: |
V:2
 D3/2 x/ | x8 | x8 | x8 | x8 | x8 | x8 | x8 | x6 || x2 | d4 x4 | x6 G x | x8 | x8 | x8 | x8 | x8 | %17
w: march-|||||||||||||||||
w: trav-|||||||||||||||||
w: trav-||||||||||ing,|with||||||
w: hills|||||||||||||||||
w: bound-|||||||||||||||||
 x6 |] %18
w: |
w: |
w: |
w: |
w: |
V:3
 [G,B,]>[F,B,] | [G,D]2 [G,D]2 [G,D][G,C][G,B,][G,C] | [G,D]2 [G,B,]2 [C,C]2 [C,G,]2 | %3
 [G,,G,]2 [G,,B,]2 [G,B,][G,C][G,B,][G,B,] | [D,A,]4 [D,D]2 [D,C]>[D,C] | %5
 [G,B,]2 [G,D]2 [G,D][G,C][G,B,][G,C] | [G,D]2 [G,B,]2 [C,C]2 [C,G,]2 | %7
 [D,G,]2 [D,B,]2 [D,B,][D,D][D,B,][D,B,] | [D,C]4 [G,,G,B,]2 || [G,B,]>[G,B,] | %10
 ([G,B,]2 [A,C]2) [B,D]2 [G,B,]>[G,B,] | (C,2 D,2) [G,B,]2 [G,B,][G,C] | %12
 [G,D][G,D][G,D][G,D] [G,D][G,B,][G,B,][G,D] | [D,D]4 [D,A,]2 [G,B,][G,C] | %14
 [G,D]2 [G,B,]2 [G,B,][G,D][G,B,][F,C] | [G,D]2 [G,B,]2 [C,C]2 [C,G,]2 | %16
 [D,G,]2 [D,B,]2 [D,B,][D,D][D,B,][D,B,] | [D,C]4 [G,,G,B,]2 |] %18
V:4
 x2 | x8 | x8 | x8 | x8 | x8 | x8 | x8 | x6 || x2 | x8 | C4 x4 | x8 | x8 | x8 | x8 | x8 | x6 |] %18

